X:405
T: Ballintoura
T: Baile an tSamhraidh
S: B.Breathnach: "Ceol Rince na hEireann" II/92 (gan ainm)
Z: B.Black
L: 1/8
M: 6/8
R: jig
K: Edor
efe B2A|G2E B2A|FEF A2F|D2F A3|
efe B2A|G2E B2A|FEF A2F|1 E3 E3 :|2\
E3 E||
GA|B2e ede|faa a3|baf a2f|efe dBA|
B2e ede|f2a a2a|baf a2f|e3 e2d|
B2e ede|f2a a2a|baf a2f|e2d B2d|
efe B2A|G2E B2A|FEF A2F|E3 E3||

